img/tone-1.svg

<?xml version="1.0" encoding="UTF-8"?>
<svg width="5px" height="5px" viewBox="0 0 5 5" version="1.1" xmlns="http://www.w3.org/2000/svg" xmlns:xlink="http://www.w3.org/1999/xlink">
    <title>tone-1</title>
    <g id="tone-1" stroke="none" stroke-width="1" fill="none" fill-rule="evenodd">
        <path d="M0.0202428067,2.00957662 C0.0652546783,1.95308236 0.439337759,2.16498789 0.636230528,2.16498789 C0.767492374,2.16498789 2.09720741,2.16498789 4.62537563,2.16498789 C4.74951081,2.1622589 4.84088505,2.18392673 4.89949837,2.22999139 C4.95811169,2.27605606 4.98741835,2.32171795 4.98741835,2.36697708 C5.00419388,2.78899236 5.00419388,3 4.98741835,3 C4.96225504,3 4.74614839,2.92571134 4.41837618,2.93118743 C4.37745941,2.93187103 0.891219256,2.93118743 0.575386647,2.93118743 C0.227273201,2.93118743 0.144951059,2.89776456 0.0202428067,2.78555798 C0.019183308,2.76389796 -0.0247690649,2.06607089 0.0202428067,2.00957662 Z" id="tone1-copy" fill="#FFA17A"></path>
    </g>
</svg>

<svg width="5" height="5" xmlns="http://www.w3.org/2000/svg"><path d="M.02 2.01c.045-.057.42.155.616.155h3.99c.124-.003.215.019.273.065.06.046.088.092.088.137.017.422.017.633 0 .633-.025 0-.24-.074-.569-.069H.575c-.348 0-.43-.033-.555-.145 0-.022-.045-.72 0-.776z" fill="#FFA17A" fill-rule="evenodd"/></svg>
